X:1
T:[ID 5-19]
T:[ID 5-19]
T:Bezeichnung standardisiert: Menuett Menuet
T:Urheber unbekannt Datum in der hier transkribierten schriftlichen Quelle: 1773
C:Urheber unbekannt
C:Datum in der hier transkribierten schriftlichen Quelle: 1773
L:1/8
M:3/4
K:A
V:1 treble 
V:1
 (3aec A2 A2 | (3ABc (3Bcd c2 | (3aec A2 A2 | (3ABc (3Bcd c2 |"^[sic]" ge c'2 b2 | a4 g2 | %6
 fagfe^d | e6 :: eggbbg | eaac'c'a | ebbd'd'c' | b6 | eA f2 e2 |{e} d4 c2 | BdcBAG | A6 :| %16

